X: 1
T: Finlay MacLennan Smillie Of Finavon Castle
C: Phil Smillie
R: Strathspey
M: 4/4
L: 1/8
K: D
A|:F<A A>B A>F E>F|D>F A<F A2 F>A|B2 G>B d>e d>B|A<F G>F E3 A|
F<A A>B A>F E>F|D>F B<A B2 A>B|d>e (3fed (3cBA (3GFE|F2 D2 D4:|
|:B2 B>A B>c d>c|B>A F>G A2 E>F|G2G>A G>F E>F|G/F/E B>A F3A|
B2 B>A B>c d>c|B>A F>G A2 E>F|G2 F>G A<B G>E|F2 D2 D4:|
